src/dsmComponents/Icons/device-mobile-disconnected-16px.svg

<?xml version="1.0" encoding="UTF-8"?>
<svg width="16px" height="16px" viewBox="0 0 16 16" version="1.1" xmlns="http://www.w3.org/2000/svg" xmlns:xlink="http://www.w3.org/1999/xlink">
    <!-- Generator: Sketch 59.1 (86144) - https://sketch.com -->
    <title>device-mobile-disconnected-16px</title>
    <desc>Created with Sketch.</desc>
    <defs>
        <path d="M6.42596919,13.4996 L9.42596919,13.4996 C9.70196919,13.4996 9.92596919,13.2756 9.92596919,12.9996 C9.92596919,12.7236 9.70196919,12.4996 9.42596919,12.4996 L6.42596919,12.4996 C6.14996919,12.4996 5.92596919,12.7236 5.92596919,12.9996 C5.92596919,13.2756 6.14996919,13.4996 6.42596919,13.4996 M11.4484692,13.4996 C11.4484692,14.0526 11.0014692,14.4996 10.4484692,14.4996 L5.44246919,14.4996 C4.89046919,14.4996 4.44246919,14.0526 4.44246919,13.4996 L4.44246919,4.7456 L11.4484692,10.6236 L11.4484692,13.4996 Z M0.437469195,0.1646 C0.578469195,-0.0044 0.830469195,-0.0254 0.999469195,0.1146 L0.999469195,0.1146 L15.7084692,12.4576 C15.8784692,12.5996 15.8994692,12.8516 15.7594692,13.0206 L15.7594692,13.0206 L15.4144692,13.4306 C15.2724692,13.5996 15.0204692,13.6206 14.8514692,13.4786 L14.8514692,13.4786 L13.9254692,12.7016 L12.9264692,11.8626 L12.9264692,13.9996 C12.9264692,15.1036 12.0304692,15.9996 10.9264692,15.9996 L10.9264692,15.9996 L4.92646919,15.9996 C3.82146919,15.9996 2.92646919,15.1036 2.92646919,13.9996 L2.92646919,13.9996 L2.92646919,3.4726 L1.92546919,2.6336 L0.142469195,1.1376 C-0.0265308052,0.9946 -0.0485308052,0.7426 0.0944691948,0.5736 L0.0944691948,0.5736 Z M10.9264692,0 C12.0304692,0 12.9264692,0.895 12.9264692,2 L12.9264692,2 L12.9264692,8.386 L11.4484692,7.147 L11.4484692,2.545 C11.4484692,1.992 11.0004692,1.545 10.4484692,1.545 L10.4484692,1.545 L5.44246919,1.545 C5.26046919,1.545 5.09646919,1.607 4.94946919,1.693 L4.94946919,1.693 L3.57246919,0.538 C3.92746919,0.206 4.39946919,0 4.92646919,0 L4.92646919,0 Z" id="path-1"></path>
    </defs>
    <g id="Final" stroke="none" stroke-width="1" fill="none" fill-rule="evenodd">
        <g id="All-Nucleo-Icons" transform="translate(-319.000000, -2204.000000)">
            <g id="Solo/Nucleo/16px/device-mobile-disconnected" transform="translate(315.000000, 2200.000000)">
                <g id="phone-not-connected" transform="translate(4.000000, 4.000000)">
                    <g id="Colour/Default-Colour">
                        <mask id="mask-2" fill="white">
                            <use xlink:href="#path-1"></use>
                        </mask>
                        <use id="Mask" fill="#555555" xlink:href="#path-1"></use>
                        <g id="colour/neutral/chia" mask="url(#mask-2)" fill="#737373">
                            <g transform="translate(-24.000000, -24.000000)" id="Colour">
                                <rect x="0" y="0" width="64" height="64"></rect>
                            </g>
                        </g>
                    </g>
                </g>
            </g>
        </g>
    </g>
</svg>

<svg width="16" height="16" xmlns="http://www.w3.org/2000/svg" xmlns:xlink="http://www.w3.org/1999/xlink"><defs><path d="M6.426 13.5h3a.5.5 0 000-1h-3a.5.5 0 000 1m5.022 0a1 1 0 01-1 1H5.442a1 1 0 01-1-1V4.746l7.006 5.878V13.5zM.438.165a.4.4 0 01.561-.05l14.71 12.343a.4.4 0 01.05.563l-.345.41a.4.4 0 01-.563.048l-.926-.777-.999-.84V14a2 2 0 01-2 2h-6a2 2 0 01-2-2V3.473l-1-.84L.141 1.139A.4.4 0 01.094.574zM10.925 0a2 2 0 012 2v6.386l-1.478-1.239V2.545a1 1 0 00-1-1H5.442a.973.973 0 00-.493.148L3.572.538A1.971 1.971 0 014.926 0z" id="device-mobile-disconnected-16px_svg__a"/></defs><use fill="#737373" xlink:href="#device-mobile-disconnected-16px_svg__a" fill-rule="evenodd"/></svg>
